X:220
T: ES WOLLT EIN JAEGER JAGEN, DREI STUNDEN VOR DEM TAGEN
N: Z0219
O: Europa, Mitteleuropa, Deutschland
R: Jaeger - Lied
M: 3/8
L: 1/8
K: G
D | GGG | BBF | G2B | A2
D | GGG | BAF | G2B | A2
D | G2B | dBG | GDD | DB,
D | DB,D | DB,D | G2
B | dBG | cDD | G2

@@@ Tune index: 9978
